X: 7461
T: Clydesdale Lasses, The
R: reel
M: 4/4
K: Dmajor
|:FDAD BDAD|FDAD FGAG|FDAD BDAD|1 GFEF GABG:|2 GFEF GABc||
|:defe d2Ad|edef gfef|defe dAFA|1 GFEF GABc:|2 GFEF GABG||

